icons/hospital.svg

<svg width="24" height="24" viewBox="0 0 24 24" fill="none" xmlns="http://www.w3.org/2000/svg">
<path fill-rule="evenodd" clip-rule="evenodd" d="M3 3C3 2.44772 3.44772 2 4 2H20C20.5523 2 21 2.44772 21 3V20H22C22.5523 20 23 20.4477 23 21C23 21.5523 22.5523 22 22 22H2C1.44772 22 1 21.5523 1 21C1 20.4477 1.44772 20 2 20H3V3ZM5 20H8V15C8 14.4477 8.44772 14 9 14H15C15.5523 14 16 14.4477 16 15V20H19V4H5V20ZM14 20V16H10V20H14ZM12 6C12.5523 6 13 6.44772 13 7V8H14C14.5523 8 15 8.44772 15 9C15 9.55228 14.5523 10 14 10H13V11C13 11.5523 12.5523 12 12 12C11.4477 12 11 11.5523 11 11V10H10C9.44772 10 9 9.55228 9 9C9 8.44772 9.44772 8 10 8H11V7C11 6.44772 11.4477 6 12 6Z" fill="black"/>
</svg>

<svg
  width="24"
  height="24"
  viewBox="0 0 24 24"
  xmlns="http://www.w3.org/2000/svg"
>
  <path
    fill-rule="evenodd"
    clip-rule="evenodd"
    d="M3 3a1 1 0 0 1 1-1h16a1 1 0 0 1 1 1v17h1a1 1 0 1 1 0 2H2a1 1 0 1 1 0-2h1V3zm2 17h3v-5a1 1 0 0 1 1-1h6a1 1 0 0 1 1 1v5h3V4H5v16zm9 0v-4h-4v4h4zM12 6a1 1 0 0 1 1 1v1h1a1 1 0 1 1 0 2h-1v1a1 1 0 1 1-2 0v-1h-1a1 1 0 0 1 0-2h1V7a1 1 0 0 1 1-1z"
  />
</svg>
